X: 123
T: Mr Monro Binning's Strathspey
C: attr. John French (1753-1803)
R: strathspey
B: "John French Collection", John French ed. p.12 #3
S: http://www.heallan.com/french.asp
Z: 2012 John Chambers <jc:trillian.mit.edu>
M: C
L: 1/8
K: D
F | D>FA=c BdAF | GBFd B(EEF) | D>FA=c BdAF | Ad (Ted/e/) fd-d :|
g | faef d>BAF | Adfa g(eeg) | faef d>BAG | FAEA FD-Dg |
faef d>BAF | Adfa g(eeg) | f<ae<f d<fBd | Ad(Ted/e/) fdd |]

%%sep 2 1 500
%%sep 1 1 500

